src/symbolic/categories/applications-utilities-symbolic.svg

<svg xmlns="http://www.w3.org/2000/svg" width="16" height="16"><path d="M3 0c1.662 0 3 1.338 3 3v10c0 1.662-1.338 3-3 3s-3-1.338-3-3V3c0-1.662 1.338-3 3-3zM5.41 0c.87.71 1.47 1.79 1.47 3v1H9c-.07-1.09 1.25-2 2-2 .68 0 1 .01 1 1v1h1.22C14.45 3.4 15 2.03 15 1.31 15 .58 12.61 0 11.31 0zM7 5v4.31c2.77 2.66 6.13 2.41 6.13 2.41s.35-1.52-1.91-4.03L8.84 5zm2.98 2.53l1.68 1.74c-1.8.16-2.15-.86-1.68-1.74z" fill="#444"/></svg>

<svg xmlns="http://www.w3.org/2000/svg" width="16" height="16" version="1.1">
 <path style="fill:#444444" d="M 3,0 C 4.662,0 6,1.338 6,3 V 13 C 6,14.662 4.662,16 3,16 1.338,16 0,14.662 0,13 V 3 C 0,1.338 1.338,0 3,0 Z"/>
 <path style="fill:#444444" d="M 5.41,0 C 6.28,0.71 6.88,1.79 6.88,3 V 4 H 9 C 8.93,2.91 10.25,2 11,2 11.68,2 12,2.01 12,3 V 4 H 13.22 C 14.45,3.4 15,2.03 15,1.31 15,0.58 12.61,0 11.31,0 Z"/>
 <path style="fill:#444444" d="M 7,5 V 9.31 C 9.77,11.97 13.13,11.72 13.13,11.72 13.13,11.72 13.48,10.2 11.22,7.69 L 8.84,5 Z M 9.98,7.53 11.66,9.27 C 9.86,9.43 9.51,8.41 9.98,7.53 Z"/>
</svg>
